src/shared/assets/icons/projects.svg

<svg width="22" height="24" viewBox="0 0 22 24" fill="none" xmlns="http://www.w3.org/2000/svg">
<path fill-rule="evenodd" clip-rule="evenodd" d="M11.0423 2.63625C10.4024 2.2456 9.5978 2.2456 8.95794 2.63625L2.84895 6.36588C1.5594 7.15317 1.57497 9.03115 2.8774 9.79696L9.00933 13.4024C9.63644 13.7712 10.4143 13.7703 11.0406 13.4001L17.1339 9.79909C18.4329 9.03137 18.4463 7.15655 17.1585 6.37028L11.0423 2.63625ZM17.6032 11.4709C18.0833 11.198 18.6938 11.3661 18.9666 11.8462C19.22 12.2921 19.0932 12.8503 18.6894 13.1463L18.5913 13.2097L11.9967 16.9572C11.167 17.4329 10.1543 17.4657 9.29646 17.0535L9.11513 16.9584L2.59833 13.207C2.11968 12.9314 1.95503 12.3201 2.23056 11.8414C2.48641 11.397 3.03184 11.2232 3.49169 11.4213L3.59612 11.4736L10.1095 15.2231C10.3498 15.3601 10.6429 15.377 10.8983 15.2725L11.0053 15.2202L17.6032 11.4709ZM17.5062 15.1307C17.9864 14.8579 18.5968 15.0259 18.8697 15.5061C19.1231 15.952 18.9963 16.5102 18.5924 16.8061L18.4943 16.8696L11.8998 20.617C11.07 21.0928 10.0573 21.1255 9.1995 20.7133L9.01817 20.6182L2.50137 16.8668C2.02273 16.5913 1.85807 15.9799 2.1336 15.5013C2.38945 15.0568 2.93489 14.8831 3.39473 15.0811L3.49916 15.1335L10.0126 18.8829C10.2528 19.02 10.5459 19.0369 10.8014 18.9323L10.9083 18.8801L17.5062 15.1307Z" fill="#D9D9D9"/>
</svg>

<svg xmlns="http://www.w3.org/2000/svg" width="22" height="24" fill="none"><path fill="#D9D9D9" fill-rule="evenodd" d="M11.042 2.636a2 2 0 0 0-2.084 0l-6.109 3.73c-1.29.787-1.274 2.665.028 3.431l6.132 3.605a2 2 0 0 0 2.032-.002l6.093-3.6c1.299-.769 1.312-2.643.024-3.43l-6.116-3.734Zm6.561 8.835a1 1 0 0 1 1.086 1.675l-.098.064-6.594 3.747a2.906 2.906 0 0 1-2.7.096l-.182-.095-6.517-3.751a1 1 0 0 1 .894-1.786l.104.053 6.514 3.75c.24.136.533.153.788.049l.107-.053 6.598-3.75Zm-.097 3.66a1 1 0 0 1 1.086 1.675l-.098.064-6.594 3.747a2.906 2.906 0 0 1-2.7.096l-.182-.095-6.517-3.751a1 1 0 0 1 .894-1.786l.104.053 6.514 3.749c.24.137.533.154.788.05l.107-.053 6.598-3.75Z" clip-rule="evenodd"/></svg>
